app/dist/common/images/saudi-telecom-co.svg

<svg height="18" viewBox="0 0 18 18" width="18" xmlns="http://www.w3.org/2000/svg"><path d="m0 0h18v18h-18z" fill="#4f008b"/><path d="m12.86 7c.7 0 1.24.27 1.6.64.26.28.43.61.51.95l-.95.36c-.09-.2-.22-.95-1.12-.95s-1.25.88-1.25 1.5.38 1.5 1.21 1.5c.84-.02 1.1-.6 1.2-.98l.94.39a2.11 2.11 0 0 1 -2.1 1.59c-.66 0-1.25-.26-1.67-.7a2.57 2.57 0 0 1 -.7-1.8c0-.73.26-1.35.68-1.8.42-.44 1-.7 1.65-.7zm-3.86 0v3.17c0 .38.07.83.9.83.42 0 .56-.28.56-.28v1s-.08.28-.8.28c-.88 0-1.66-.75-1.66-1.66v-3.34zm1-1v1h-1v-1zm-1-1v1h-1v-1zm-3.99 2c1.17 0 1.9.49 1.99 1.38l-1 .24c-.05-.38-.3-.62-.78-.62-.47 0-.92.1-.92.53s.76.44 1.13.5c.49.09.88.27 1.15.52.27.24.42.56.42.92 0 .93-.69 1.53-1.93 1.53-.84 0-1.78-.46-2.07-1.44l1.08-.19c.08.2.41.63 1 .63.48 0 .92-.14.92-.43 0-.55-1.08-.59-1.47-.69-.51-.14-1.24-.66-1.24-1.44s.76-1.44 1.71-1.44z" fill="#fff"/></svg>

<!-- by TradingView --><svg width="18" height="18" viewBox="0 0 18 18" xmlns="http://www.w3.org/2000/svg"><path fill="#4F008B" d="M0 0h18v18H0z"/><path d="M12.86 7c.7 0 1.24.27 1.6.64.26.28.43.61.51.95l-.95.36c-.09-.2-.22-.95-1.12-.95-.9 0-1.25.88-1.25 1.5s.38 1.5 1.21 1.5c.84-.02 1.1-.6 1.2-.98l.94.39A2.11 2.11 0 0 1 12.9 12c-.66 0-1.25-.26-1.67-.7a2.57 2.57 0 0 1-.7-1.8c0-.73.26-1.35.68-1.8.42-.44 1-.7 1.65-.7ZM9 7v3.17c0 .38.07.83.9.83.42 0 .56-.28.56-.28v1s-.08.28-.8.28C8.78 12 8 11.25 8 10.34V7h1Zm1-1v1H9V6h1ZM9 5v1H8V5h1ZM5.01 7c1.17 0 1.9.49 1.99 1.38l-1 .24C5.95 8.24 5.7 8 5.22 8c-.47 0-.92.1-.92.53 0 .43.76.44 1.13.5.49.09.88.27 1.15.52.27.24.42.56.42.92C7 11.4 6.31 12 5.07 12c-.84 0-1.78-.46-2.07-1.44l1.08-.19c.08.2.41.63 1 .63.48 0 .92-.14.92-.43 0-.55-1.08-.59-1.47-.69-.51-.14-1.24-.66-1.24-1.44C3.29 7.66 4.05 7 5 7Z" fill="#fff"/></svg>
